X:4109
T:Mazurka o'Gaston
O:england
C:Trio Bouffard: Rabaterie
M:3/4
L:1/4
K:G
B/c/dd|ABc|d3|B/c/dd|ABG|A2:|\
d/d/dB|c/c/cA|BAG|FGA|BGA|BdB|cAG|A/F/G2||
